UI/Map-View/SVG/distance_solid_16px.svg

<svg width="16" height="16" viewBox="0 0 16 16" fill="none" xmlns="http://www.w3.org/2000/svg">
<path d="M1 9V14C1 14.2652 1.10536 14.5196 1.29289 14.7071C1.48043 14.8946 1.73478 15 2 15H14C14.2652 15 14.5196 14.8946 14.7071 14.7071C14.8946 14.5196 15 14.2652 15 14V9H1ZM6 13H4V11H6V13ZM12 13H10V11H12V13ZM5 6L4 5H12L11 6L12 7L14 5L15 4L14 3L12 1L11 2L12 3H4L5 2L4 1L1 4L4 7L5 6Z" fill="#0F1621"/>
</svg>

<svg xmlns="http://www.w3.org/2000/svg" width="16" height="16" viewBox="0 0 16 16"><rect width="16" height="16" style="fill:none"/><path d="M1,9v5a1,1,0,0,0,1,1H14a1,1,0,0,0,1-1V9Zm5,4H4V11H6Zm6,0H10V11h2ZM5,6,4,5h8L11,6l1,1,2-2h0l1-1L14,3h0L12,1,11,2l1,1H4L5,2,4,1,1,4,4,7Z"/></svg>
